X: 1
T: Laird Jim's 60th
C: Gabrielle Funhoff
R: reel
Z: 2010 John Chambers <jc:trillian.mit.edu>
F: http://blog.lib.umn.edu/ldfs/8x32/music/LairdJim%27s60thMusic.pdf
M: C|
L: 1/8
K: G
|: G2G2 BAGA | B2B2 dcBc | d2d2  gfga | b2B2 B2z2 |
|1 F2F2 AGFG | A2A2 cBAB | c2c2  dcBc | d3e  dcBA :|
|2 e3f  ggfe | d2g2 b4   | A3B   ccBA | B2G2 G2z2 |]
[| eeed eeed | eeef g4   | ddd^c ddde | d2B2 B2z2 |
|  eeed eeed | eeef g2z2 | FFFG  AAGF | G2B2 G2z2 |]

